X: 9791
T: Denis Igoe's
R: reel
M: 4/4
K: Gmajor
|:B3e dBGA|B2Ac B~G3|B2Be dBGA|1 (3Bcd AB ~G3z:|2 B2AB ~G3z||
|:ggdc Bcde|d2ag fdaf|ggdc Bcde|dBcA BGG2:|

